gui/resources/file_sharing/content_filetype_powerpoint.svg

<svg width="44" height="44" viewBox="0 0 44 44" fill="none" xmlns="http://www.w3.org/2000/svg">
<path fill-rule="evenodd" clip-rule="evenodd" d="M33.917 19C33.7711 19.863 33.4383 20.6836 32.9418 21.4043C32.4454 22.1251 31.7973 22.7285 31.043 23.1724C30.2887 23.6163 29.4465 23.8899 28.5754 23.9739C27.7042 24.058 26.8252 23.9505 26 23.659V26H33.5C33.6326 26 33.7598 26.0527 33.8536 26.1464C33.9473 26.2402 34 26.3674 34 26.5C34 26.6326 33.9473 26.7598 33.8536 26.8536C33.7598 26.9473 33.6326 27 33.5 27H26V29H33.5C33.6326 29 33.7598 29.0527 33.8536 29.1464C33.9473 29.2402 34 29.3674 34 29.5C34 29.6326 33.9473 29.7598 33.8536 29.8536C33.7598 29.9473 33.6326 30 33.5 30H26V32.434C26 32.5049 25.9849 32.575 25.9557 32.6396C25.9266 32.7042 25.884 32.7618 25.8309 32.8087C25.7777 32.8556 25.7152 32.8907 25.6475 32.9116C25.5797 32.9325 25.5083 32.9388 25.438 32.93L10.438 31.055C10.3171 31.0399 10.2059 30.9812 10.1252 30.8898C10.0446 30.7985 10 30.6808 10 30.559V13.44C10 13.3182 10.0446 13.2005 10.1252 13.1092C10.2059 13.0178 10.3171 12.9591 10.438 12.944L25.438 11.069C25.5083 11.0602 25.5797 11.0665 25.6475 11.0874C25.7152 11.1083 25.7777 11.1434 25.8309 11.1903C25.884 11.2372 25.9266 11.2948 25.9557 11.3594C25.9849 11.424 26 11.4941 26 11.565V12.34C26.6425 12.1138 27.3189 11.9988 28 12V19H33.917ZM13.946 27.733L16.069 27.969V23.754L17.453 23.8C18.414 23.832 19.148 23.8 19.655 23.702C20.028 23.621 20.395 23.44 20.755 23.16C21.117 22.875 21.415 22.477 21.649 21.963C21.883 21.445 22 20.804 22 20.043C22 19.057 21.797 18.265 21.39 17.673C20.984 17.09 20.48 16.737 19.877 16.612C19.485 16.529 18.643 16.55 17.353 16.673L13.946 17V27.734V27.733ZM16.069 18.686L17.094 18.624C17.859 18.578 18.369 18.574 18.622 18.611C18.966 18.661 19.251 18.819 19.475 19.087C19.7 19.357 19.813 19.711 19.813 20.146C19.813 20.499 19.733 20.81 19.573 21.079C19.413 21.345 19.191 21.541 18.909 21.666C18.627 21.79 18.067 21.852 17.231 21.854L16.069 21.856V18.686V18.686ZM29.5 11.5C31.0913 11.5 32.6174 12.1321 33.7426 13.2574C34.8679 14.3826 35.5 15.9087 35.5 17.5H29.5V11.5Z" fill="white"/>
</svg>

<svg xmlns="http://www.w3.org/2000/svg" width="44" height="44" viewBox="0 0 44 44">
    <g fill="none" fill-rule="evenodd">
        <circle cx="22" cy="22" r="22" fill="#D34829"/>
        <path d="M6 6h32v32H6z"/>
        <path fill="#FFF" d="M33.917 19A6.002 6.002 0 0 1 26 23.659V26h7.5a.5.5 0 1 1 0 1H26v2h7.5a.5.5 0 1 1 0 1H26v2.434a.5.5 0 0 1-.562.496l-15-1.875a.5.5 0 0 1-.438-.496V13.44a.5.5 0 0 1 .438-.496l15-1.875a.5.5 0 0 1 .562.496v.775A5.99 5.99 0 0 1 28 12v7h5.917zm-19.971 8.733l2.123.236v-4.215l1.384.046c.961.032 1.695 0 2.202-.098.373-.081.74-.262 1.1-.542.362-.285.66-.683.894-1.197.234-.518.351-1.159.351-1.92 0-.986-.203-1.778-.61-2.37-.406-.583-.91-.936-1.513-1.061-.392-.083-1.234-.062-2.524.061L13.946 17v10.734zm2.123-9.047l1.025-.062c.765-.046 1.275-.05 1.528-.013.344.05.629.208.853.476.225.27.338.624.338 1.059 0 .353-.08.664-.24.933-.16.266-.382.462-.664.587-.282.124-.842.186-1.678.188l-1.162.002v-3.17zM29.5 11.5a6 6 0 0 1 6 6h-6v-6z"/>
    </g>
</svg>
